!!!OTL: Ermunterung.
!!!OTL-incipit: SEHT WIE DIE TAGE SICH SONNIG VERKLAEREN
!!!COM: J. R. Zumsteeg
!!!ARE: Europa, Mitteleuropa, Deutschland
!!!SCT: F1077
!!!TXL: @@DE
!!!YEM: Copyright 1995, estate of Helmut Schaffrath.
**kern	**text
*ICvox	*
*clefG2	*
*M3/8	*
*k[f#]	*
*G:	*
=1	=1
!LO:TX:a:t=Mäßig.	!
{8b	1._Seht,
(16ddL	wie
16ccJ)	.
(16aL	die
16f#J)	.
=2	=2
(16gL	Ta-
16bJ)	.
(16ddL	-ge
16ccJ)}	.
{(16aL	ſich
16f#J)	.
=3	=3
(16gL	ſon-
16bJ)	.
(16ddL	-nig
16bJ)	.
(16ggL	ver-
16ddJ)	.
=4	=4
16ddqq	.
8cc	-klä-
8b	-ren!
8r}	.
=5	=5
{8a	blau
(16g#L	iſt
16bJ)	.
(16g#L	der
16eJ)	.
=6	=6
8a	Him-
(16g#L	-mel
16bJ)}	.
{(16g#L	und
16eJ)	.
=7	=7
16aL	grü-
16eeJ	.
16ddL	-nend
16ccJ	.
16bL	das
16aJ	.
=8	=8
(8gnL	Land.
8f#J)	.
8r}	.
=9	=9
{8b	Klag'
16ddL	iſt
16ccJ	.
16aL	ein
16f#J	.
=10	=10
16gL	Miß-
16bJ	.
16ddL	-ton
16ccJ}	.
{16aL	im
16f#J	.
=11	=11
16gL	Cho-
16bJ	.
16ddL	-re
16bJ	.
16aL	der
16gJ	.
=12	=12
8ddqq	.
8cc	Sphären!
8b	.
8r}	.
=13	=13
{8a	trägt
(16a\L	denn
16bJ)	.
(16cc#L	die
16ddJ)	.
=14	=14
8a	Schöpfung
(16a\L	.
16bJ)}	.
{16cc#L	ein
16ddJ	.
=15	=15
16bL	Trauer-
16eeJ	.
8ee	.
8cc#	-ge-
=16	=16
4dd	-wand?
8r}	.
=17	=17
{(16dL	He-
16ddJ)	.
8.dd	-bet
16dd	die
=18	=18
(16ddL	Bli-
16cc#J)	.
8.cc#}	-cke,
{16ee	die
=19	=19
(16eeL	trü-
16b-J)	.
8.b-	-be
16g	ſich
=20	=20
(16f#L	ſen-
16aJ)	.
8a	-ken!
8r}	.
=21	=21
{8ccn	he-
8.cc	-bet
16cc	die
=22	=22
(16ccL	Bli-
16bJ)	.
8.b}	-cke;
{16g	des
=23	=23
8.dd	Schönen
16cc	.
8b	iſt
=24	=24
4a	viel.
8r}	.
=25	=25
{8b	Tu-
16ddL	-gend
16ccJ	.
16aL	wird
16f#J	.
=26	=26
16gL	ſel-
16bJ	.
16ddL	-ber
16ccJ}	.
{16aL	ʒu
16f#J	.
=27	=27
16gL	Freuden
16bJ	.
16ddL	.
16bJ	.
16ggL	uns
16ddJ	.
=28	=28
16ddqq	.
8cc	len-
8b	-ken;
8r}	.
=29	=29
{8ee	Freud'
8ee	iſt
8ee	der
=30	=30
8.ee	Weisheit
16dd}	.
{8cc	be-
=31	=31
16bL	-loh-
32cc	.
32ddJ	.
8cc	-nen-
8a	-des
=32	=32
4g	Ʒiel.
8r}	.
==	==
!!!AGN: Trost - Lied
!!!ONB: ESAC (Essen Associative Code) Database: FINK
!!!AMT: simple triple
!!!AIN: vox
!!!EED: Helmut Schaffrath
!!!EEV: 1.0
!!Text: J. G. v. Salis
!!!RDF**kern: > = above
!!!GTL: Trauer- Begraebniss- und Trostlieder
!!!URL-scan: https://www.digitale-sammlungen.de/en/view/bsb11144622?page=684
!!!ENC: Anna Maria Matuszewska
!!!EEV: 2024/08/09
*-	*-
